image/icons/whatsapp-brown.svg

<svg width="32" height="32" viewBox="0 0 32 32" fill="none" xmlns="http://www.w3.org/2000/svg">
<path d="M15.1998 0.00514522C12.6315 0.036149 7.10977 0.458201 4.02139 3.29155C1.72411 5.56783 0.92201 8.93325 0.827999 13.0948C0.749989 17.2413 0.655978 25.0282 8.1619 27.1485V30.3779C8.1619 30.3779 8.1149 31.6701 8.969 31.9351C10.0211 32.2681 10.6202 31.274 11.6203 30.2059L13.4856 28.0966C18.6212 28.5237 22.5547 27.5395 23.0077 27.3935C24.0499 27.0605 29.9196 26.3104 30.8787 18.5224C31.8628 10.4794 30.3996 5.41181 27.7583 3.11953H27.7423C26.9452 2.38544 23.7418 0.0511509 16.5849 0.0251477C16.5849 0.0251477 16.0539 -0.0108568 15.1998 0.00414509V0.00514522ZM15.2878 2.26642C16.0169 2.26142 16.4599 2.29243 16.4599 2.29243C22.5177 2.30843 25.409 4.13165 26.0911 4.74573C28.3154 6.65196 29.4615 11.2205 28.6224 17.9354C27.8253 24.4462 23.0647 24.8582 22.1836 25.1392C21.8086 25.2593 18.3442 26.1134 13.9796 25.8323C13.9796 25.8323 10.7292 29.7548 9.71309 30.7649C9.55207 30.942 9.36405 30.994 9.24404 30.968C9.07202 30.926 9.02001 30.7129 9.03001 30.4209L9.06101 25.0612C2.69523 23.301 3.07028 16.6592 3.13828 13.1898C3.21629 9.72034 3.86737 6.88199 5.80561 4.95976C8.41493 2.60047 13.1035 2.28243 15.2858 2.26642H15.2878ZM15.7678 5.73485C15.7154 5.73432 15.6635 5.74417 15.6149 5.76383C15.5663 5.78348 15.5221 5.81255 15.4848 5.84937C15.4476 5.88619 15.4179 5.93002 15.3977 5.97833C15.3774 6.02665 15.3669 6.07851 15.3668 6.1309C15.3668 6.35493 15.5488 6.53195 15.7678 6.53195C16.7595 6.51309 17.745 6.69074 18.6676 7.05464C19.5903 7.41854 20.4317 7.96151 21.1435 8.65221C22.5967 10.0634 23.3048 11.9596 23.3318 14.4389C23.3318 14.658 23.5088 14.84 23.7328 14.84V14.824C23.8384 14.8242 23.9398 14.7828 24.0149 14.7086C24.0901 14.6344 24.1328 14.5335 24.1339 14.4279C24.1824 13.2609 23.9932 12.0962 23.5776 11.0047C23.1621 9.91309 22.5289 8.91741 21.7166 8.07814C20.1334 6.53095 18.1271 5.73385 15.7678 5.73385V5.73485ZM10.4962 6.65197C10.2131 6.6106 9.92439 6.66743 9.67809 6.81298H9.65709C9.08528 7.14817 8.57017 7.5718 8.1309 8.06814C7.76585 8.49019 7.56783 8.91724 7.51582 9.3283C7.48482 9.57333 7.50582 9.81836 7.57883 10.0524L7.60483 10.0684C8.01588 11.2765 8.55295 12.4387 9.20903 13.5328C10.0542 15.07 11.0942 16.4916 12.3034 17.7623L12.3394 17.8143L12.3964 17.8563L12.4324 17.8984L12.4744 17.9344C13.7498 19.1471 15.1749 20.192 16.715 21.0437C18.4752 22.0019 19.5433 22.4549 20.1844 22.6429V22.6529C20.3724 22.7099 20.5434 22.7359 20.7154 22.7359C21.2618 22.6959 21.779 22.4741 22.1846 22.1059C22.6787 21.6665 23.0976 21.1493 23.4248 20.5747V20.5647C23.7318 19.9866 23.6278 19.4395 23.1848 19.0695C22.2975 18.2939 21.338 17.605 20.3194 17.0122C19.6373 16.6422 18.9442 16.8662 18.6632 17.2413L18.0641 17.9964C17.7571 18.3714 17.199 18.3194 17.199 18.3194L17.183 18.3294C13.0215 17.2663 11.9114 13.0528 11.9114 13.0528C11.9114 13.0528 11.8594 12.4797 12.2444 12.1876L12.9945 11.5836C13.3535 11.2915 13.6036 10.5995 13.2185 9.91637C12.6299 8.8964 11.9425 7.93667 11.1663 7.05101C10.9966 6.84222 10.7585 6.70016 10.4942 6.64996L10.4962 6.65197ZM16.4599 7.84011C15.9289 7.84011 15.9289 8.64221 16.4649 8.64221C17.1253 8.65292 17.7771 8.79367 18.383 9.0564C18.989 9.31912 19.5372 9.69869 19.9964 10.1734C20.4152 10.6355 20.7371 11.1769 20.9429 11.7656C21.1487 12.3544 21.2343 12.9784 21.1945 13.6008C21.1963 13.7062 21.2393 13.8066 21.3143 13.8806C21.3893 13.9546 21.4902 13.9964 21.5956 13.9969L21.6116 14.0179C21.7177 14.0171 21.8192 13.9746 21.8943 13.8995C21.9693 13.8245 22.0118 13.7229 22.0126 13.6168C22.0486 12.0276 21.5546 10.6945 20.5854 9.62633C19.6113 8.5582 18.2521 7.95913 16.5169 7.84011H16.4599V7.84011ZM17.117 9.99638C16.5699 9.98038 16.5489 10.7985 17.091 10.8145C18.4092 10.8825 19.0492 11.5486 19.1333 12.9187C19.1351 13.0227 19.1776 13.1219 19.2516 13.195C19.3256 13.2681 19.4253 13.3093 19.5293 13.3098H19.5453C19.5988 13.3075 19.6513 13.2946 19.6997 13.2718C19.7481 13.249 19.7915 13.2168 19.8274 13.177C19.8632 13.1372 19.8908 13.0908 19.9085 13.0402C19.9262 12.9897 19.9336 12.9362 19.9304 12.8827C19.8363 11.0965 18.8622 10.0904 17.133 9.99738H17.117V9.99638Z" fill="#592F0A"/>
</svg>

<svg width="32" height="32" fill="none" xmlns="http://www.w3.org/2000/svg"><path d="M15.2.005C12.632.036 7.11.458 4.02 3.292 1.724 5.568.922 8.933.828 13.095.75 17.24.656 25.028 8.162 27.148v3.23s-.047 1.292.807 1.557c1.052.333 1.651-.661 2.651-1.73l1.866-2.108c5.135.427 9.069-.558 9.522-.704 1.042-.332 6.912-1.083 7.87-8.87.985-8.044-.478-13.111-3.12-15.403h-.016c-.797-.735-4-3.069-11.157-3.095 0 0-.531-.036-1.385-.02zm.088 2.261a16.94 16.94 0 0 1 1.172.026c6.058.016 8.949 1.84 9.631 2.454 2.224 1.906 3.37 6.474 2.531 13.19-.797 6.51-5.557 6.922-6.438 7.203-.375.12-3.84.974-8.204.693 0 0-3.25 3.923-4.267 4.933-.16.177-.349.229-.469.203-.172-.042-.224-.255-.214-.547l.031-5.36c-6.366-1.76-5.99-8.402-5.923-11.871.078-3.47.73-6.308 2.668-8.23 2.609-2.36 7.298-2.678 9.48-2.694h.002zm.48 3.469a.397.397 0 0 0-.401.396c0 .224.182.4.4.4a7.514 7.514 0 0 1 5.377 2.121c1.453 1.411 2.16 3.308 2.188 5.787 0 .219.177.401.4.401v-.016a.4.4 0 0 0 .402-.396 8.615 8.615 0 0 0-2.417-6.35c-1.584-1.547-3.59-2.344-5.95-2.344zm-5.272.917a1.252 1.252 0 0 0-.818.161h-.02A6.277 6.277 0 0 0 8.13 8.068c-.365.422-.563.85-.615 1.26-.031.245-.01.49.063.724l.026.016c.41 1.209.948 2.37 1.604 3.465a20.376 20.376 0 0 0 3.094 4.23l.036.051.057.042.036.042.042.036a20.673 20.673 0 0 0 4.241 3.11c1.76.958 2.828 1.41 3.47 1.599v.01c.187.057.358.083.53.083a2.452 2.452 0 0 0 1.47-.63c.494-.44.913-.957 1.24-1.531v-.01c.307-.578.203-1.126-.24-1.495a18.47 18.47 0 0 0-2.866-2.058c-.682-.37-1.375-.146-1.656.23l-.599.754c-.307.375-.865.323-.865.323l-.016.01c-4.162-1.063-5.272-5.276-5.272-5.276s-.052-.573.333-.865l.75-.604c.36-.293.61-.984.225-1.668a17.99 17.99 0 0 0-2.053-2.865 1.14 1.14 0 0 0-.672-.401l.002.002zM16.46 7.84c-.531 0-.531.802.005.802a5.026 5.026 0 0 1 3.531 1.531 4.662 4.662 0 0 1 1.199 3.428.403.403 0 0 0 .4.396l.017.02a.404.404 0 0 0 .4-.4c.037-1.59-.457-2.923-1.427-3.99-.974-1.069-2.333-1.668-4.068-1.787h-.057zm.657 2.156c-.547-.016-.568.803-.026.819 1.318.068 1.958.734 2.042 2.104a.398.398 0 0 0 .396.39h.016a.403.403 0 0 0 .385-.426c-.094-1.786-1.068-2.793-2.797-2.886h-.016z" fill="#592F0A"/></svg>
